X: 28733
T: My Former Wife
R: jig
M: 6/8
K: Adorian
|:EAA ABc|B3 c2A|BGE E3|GED D3|
EAA ABc|B3 GB/c/d|ede gdB|1 BAG A2G:|2 BAG A2d||
efg a3|bag a3|ede g3|gba ged|
efg a3|bag a3|ede gdB|BAG A2d|
efg a3|bag a2g|ede g2a|gba ged|
efg abc'|bag a2g|edd gdB|BAG A3||
|:B3 c3|B3 c3|BGE E3|GED D3|
[1 B3 c3|BAB GB/c/d|ede gdB|BAG A2c:|
[2 E2A ABc|BAB GB/c/d|e2g gdB|BAG A2G||

